X:1
T:Whitwell, CM
T:Whitwell, CM
T:John Hopkins, 1875
T:Public Domain Courtesy of the Cyber Hymnal™
C:John Hopkins, 1875
Z:Public Domain
Z:Courtesy of the Cyber Hymnal™
%%score ( 1 2 ) ( 3 4 )
L:1/8
Q:1/4=115
M:4/4
K:C
V:1 treble 
V:2 treble 
V:3 bass 
V:4 bass 
V:1
 [CE]2 | [CG]2 [Ec]2 B3 [FB] | [Ec]2 [FA]2 [EG]2 [CE]2 | [EA]2 [Ec]2 [FB]2 B2 | [CA]6 [EA]2 | %5
 [Fd]3 [Ec] [DB]2 [DG]2 | [Ec]3 [DB] [CA]2 [FA]2 | [Fd]2 [Ec]2 [Dc]2 [FB]2 | [Ec]6 |] %9
V:2
 x2 | x4 (D2 G) x | x8 | x6 (ED) | x8 | x8 | x8 | x8 | x6 |] %9
V:3
 [C,G,]2 | [E,G,]2 [C,G,]2 G,3 [G,D] | [A,C]2 [F,C]2 [C,C]2 [C,G,]2 | %3
 [C,A,]2 [A,,A,]2 [D,A,]2 [E,^G,]2 | [A,,A,]6 ([A,C][G,B,]) | [F,A,]2 [D,A,]2 [G,B,]3 [F,A,] | %6
 [E,G,]2 [C,G,]2 [F,A,]2 [D,A,]2 | [B,,G,]2 [C,G,]2 [F,,A,]2 [G,,G,]2 | [C,G,]6 |] %9
V:4
 x2 | x4 G,3 x | x8 | x8 | x8 | x8 | x8 | x8 | x6 |] %9

